svg/OSM-icons/craft #ff8000 °ffffff !label=encrafts,deHerstellung, Produktion/16048;craft=metal_construction;[addr];[contact];!label=enmetal construction,deMetallbau.svg

<svg xmlns="http://www.w3.org/2000/svg" viewBox="0 0 580 580" enable-background="new 0 0 580 580"><path fill="#111" stroke="#eee" stroke-width="3.408" d="m66.28 1.768c-41.34 0-64.57 21.371-64.57 65.04v450.12c0 40.844 20.895 62.23 62.19 62.23h452.02c41.31 0 62.23-20.315 62.23-62.23v-450.12c0-42.602-20.923-65.04-63.52-65.04-.003 0-448.5-.143-448.35 0z"/><g fill="#fff"><path d="m279.39 152.66v28.19 285.3h10.39v-352.3l-10.39 5.49z"/><path d="m290.88 466.15h10.39v-346.81l-10.39-5.49z"/><path d="m33.06 234.01v198.25h10.745v-153.73l121.91-50.55v219.22h13.256v-224.71l99.38-41.21v-13.809l-99.38 41.21v-27.837l99.38-47.19v-14.12l-240.89 114.48h-4.403m132.65-46.878v27.04l-121.91 50.55v-19.702l121.91-57.886"/><path d="m542.54 234.01l-240.89-114.48v14.12l99.38 47.19v27.837l-99.38-41.21v13.809l99.38 41.21v224.71h13.256v-219.21l121.91 50.55v153.73h10.744v-198.25h-4.404m-6.34 11.01v19.702l-121.91-50.55v-27.04l121.91 57.886"/></g></svg>

<?xml version="1.0" encoding="utf-8"?>
<!-- Generator: Adobe Illustrator 15.0.0, SVG Export Plug-In . SVG Version: 6.00 Build 0)  -->
<!DOCTYPE svg PUBLIC "-//W3C//DTD SVG 1.1//EN" "http://www.w3.org/Graphics/SVG/1.1/DTD/svg11.dtd">
<svg version="1.1" xmlns="http://www.w3.org/2000/svg" xmlns:xlink="http://www.w3.org/1999/xlink" x="0px" y="0px" width="580px"
	 height="580px" viewBox="0 0 580 580" enable-background="new 0 0 580 580" xml:space="preserve">
<g id="Layer_2_1_">
	<g id="Layer_2">
		<g id="g1327">
			<path id="path1329" fill="#111111" stroke="#EEEEEE" stroke-width="3.408" d="M66.275,1.768
				c-41.335,0-64.571,21.371-64.571,65.036v450.123c0,40.844,20.895,62.229,62.192,62.229h452.024
				c41.307,0,62.229-20.315,62.229-62.229V66.804c0-42.602-20.923-65.036-63.521-65.036C514.625,1.768,66.133,1.625,66.275,1.768z"
				/>
		</g>
	</g>
</g>
<g id="Layer_1">
	<g>
		<polygon fill="#FFFFFF" points="279.391,152.658 279.391,180.849 279.391,466.148 289.778,466.148 289.778,113.852 
			279.391,119.336 		"/>
		<polygon fill="#FFFFFF" points="290.883,466.148 301.269,466.148 301.269,119.336 290.883,113.852 		"/>
		<path fill="#FFFFFF" d="M33.058,234.015v198.247h10.745V278.534l121.907-50.548v219.215h13.256V222.489l99.381-41.208v-13.809
			l-99.381,41.208v-27.837l99.381-47.189v-14.121L37.461,234.015H33.058z M165.71,187.137v27.04L43.802,264.725v-19.702
			L165.71,187.137z"/>
		<path fill="#FFFFFF" d="M542.537,234.015L301.652,119.533v14.121l99.381,47.189v27.837l-99.381-41.208v13.809l99.381,41.208
			v224.712h13.256V227.986l121.908,50.548v153.727h10.744V234.015H542.537z M536.197,245.023v19.702l-121.908-50.548v-27.04
			L536.197,245.023z"/>
	</g>
</g>
</svg>
